X:1
T:The Oda G.
M:6/8
L:1/8
K:C
 G| GGGA-c E|G-F D C2 G| G G2A-c c| d3 z GG| eee dcA| ccc AG E/2E/2|\
 GGG AcE| GFD C2||
